X: 40508
T: Tommy Doucet's Lancers
R: jig
M: 6/8
K: Amajor
|:fg|aba eae|cAA A2 fg|aga b2a|gee efg|aba agf|
[1 efg a2a|gbg ec'b|a3a:|2 efe cBA|Bba gfg|a3a||
|:cd|e2c e2a|ecA EAc|e^de aec|d3 B2c|
d2c d2g|b2a g2f|e^de fed|c3 cAc|
e2c e2a|ecA EAc|e^de a2c'|b3b2 c'|
d'd'd' d'2b|ggg g2f|e^de c'2b|a3a:|
|:ea|c'3c' fb|a3a2 c|e^de fec|B3B ga|
b3 a3|g3 f3|e^de fed|c3 cea|
c'3c' fb|a3a2 c|e^de fec|B3B ga|
bc'b bc'b|gbg gbg|e^de efg|a3a:|

